X:218
T: Dem Trisker Rebns Khusid
O:klezmer
Z: John Chambers <jc@trillian.mit.edu>
M: 2/4
L: 1/16
K: Em
|: "Em"E2BA G2G2 | GAGF E4 | E2G2 B2e2 | e2dc B4 \
| "G"BAdc B2AG | "Am"A_BAB A4 | "Em"GFFG "Dm"G=FFE | "Em"E8 :|
|: "G"D2GA B4 | B2AB A2G2 | d4 "D7"c4 | "G"B2AB A2G2 \
| zDEF GABc | de=fe dcBA | "Em"GFFG "Dm"G=FFE | "Em"E8 :|
|: "Em"G8 | "Dm"A2=F2 "Em"E4 | G8 | "Dm"A2=F2 "Em"E4 \
| "G"=fedc BAGF | GFGB "Am"A4 | "Em"GFFG "Dm"G=FFE | "Em"E8 :|





